web/static/favicon.svg

<svg xmlns="http://www.w3.org/2000/svg" height="48" viewBox="0 -960 960 960" width="48"><path d="M450-565h229v-57H450v57Zm0 227h229v-57H450v57ZM348.212-543q21.6 0 36.194-14.244Q399-571.487 399-593q0-22.812-14.806-36.906Q369.388-644 347.788-644t-35.694 14.094Q298-615.812 298-593.5q0 22.312 14.306 36.406Q326.612-543 348.212-543Zm0 226q21.6 0 36.194-13.594Q399-344.188 399-366.5q0-22.312-14.806-36.906Q369.388-418 347.788-418t-35.694 14.744Q298-388.513 298-367q0 22.812 14.306 36.406Q326.612-317 348.212-317ZM189-98q-37.175 0-64.088-26.912Q98-151.825 98-189v-582q0-37.588 26.912-64.794Q151.825-863 189-863h582q37.588 0 64.794 27.206Q863-808.588 863-771v582q0 37.175-27.206 64.088Q808.588-98 771-98H189Zm0-91h582v-582H189v582Zm0-582v582-582Z"/></svg>

<svg xmlns="http://www.w3.org/2000/svg" version="1.1" width="1080" height="1080" viewBox="0 0 1080 1080"
     xml:space="preserve">
<defs>
</defs>
<g transform="matrix(1 0 0 1 540 540)" id="76f61e30-24c3-4890-9b21-ea06a51ae58f"  >
<rect style="stroke: none; stroke-width: 1; stroke-dasharray: none; stroke-linecap: butt; stroke-dashoffset: 0; stroke-linejoin: miter; stroke-miterlimit: 4; fill: rgb(255,255,255); fill-rule: nonzero; opacity: 1; visibility: hidden;" vector-effect="non-scaling-stroke"  x="-540" y="-540" rx="0" ry="0" width="1080" height="1080" />
</g>
<g transform="matrix(1 0 0 1 540 540)" id="57baa7d4-cfb9-43b1-9572-85c8dbe8ddf4"  >
</g>
<g transform="matrix(1.38 0 0 1.38 540.36 540.36)" id="aa9221be-59a2-4941-a949-bdf5af7ef157"  >
<path style="stroke: rgb(0,0,0); stroke-width: 0; stroke-dasharray: none; stroke-linecap: butt; stroke-dashoffset: 0; stroke-linejoin: miter; stroke-miterlimit: 4; fill: rgb(63,114,175); fill-rule: nonzero; opacity: 1;" vector-effect="non-scaling-stroke"  transform=" translate(-480.5, 480.5)" d="M 450 -565 L 679 -565 L 679 -622 L 450 -622 L 450 -565 Z M 450 -338 L 679 -338 L 679 -395 L 450 -395 L 450 -338 Z M 348.212 -543 Q 369.812 -543 384.406 -557.244 Q 399 -571.487 399 -593 Q 399 -615.812 384.194 -629.906 Q 369.388 -644 347.788 -644 Q 326.18800000000005 -644 312.094 -629.906 Q 298 -615.812 298 -593.5 Q 298 -571.188 312.306 -557.094 Q 326.612 -543 348.212 -543 Z M 348.212 -317 Q 369.812 -317 384.406 -330.594 Q 399 -344.188 399 -366.5 Q 399 -388.812 384.194 -403.406 Q 369.388 -418 347.788 -418 Q 326.18800000000005 -418 312.094 -403.256 Q 298 -388.513 298 -367 Q 298 -344.188 312.306 -330.594 Q 326.612 -317 348.212 -317 Z M 189 -98 Q 151.825 -98 124.912 -124.912 Q 98 -151.825 98 -189 L 98 -771 Q 98 -808.588 124.912 -835.794 Q 151.825 -863 189 -863 L 771 -863 Q 808.588 -863 835.794 -835.794 Q 863 -808.588 863 -771 L 863 -189 Q 863 -151.825 835.794 -124.912 Q 808.588 -98 771 -98 L 189 -98 Z M 189 -189 L 771 -189 L 771 -771 L 189 -771 L 189 -189 Z M 189 -771 L 189 -189 L 189 -771 Z" stroke-linecap="round" />
</g>
</svg>
